X:247
T:Mountain Road
Z: id:dc-reel-227
M:C
L:1/8
K:D Major
D|F2AF BFAF|F2AF EFDE|F2AF BFAF|G2FG EDB,D|!
F2AF BFAF|F2AF EFDE|FAA2 BAFB|ABde fdd|]!
A|dcdB ADFA|dcde fgfe|dcdB ADFA|G2FG EDB,:|!

